X:1
T:Seewligrat-Juiz  Bb  ABAC
T:Alois Gabriel (28.10.1950)
T:Dirigenten-Notiz  Edi Gasser
C:Unterwalden (CH)
%%partsbox
P:ABAC
M:C
R:Naturjodel
L:1/8
K:Bb 
[P:A] "langsam, gefühlvoll" FF| f2=eg fd BG | A2Ffe2FF | A2ce gf eA | BF Bcd2FF | 
f2=eg fd B_A | G2Beg2Bc | dF fd cF fA | B4z2 || 
L:1/8
M:C
[P:B] "gemütlich" d2 | cFFd cFfe | dFFd BFdf | c2Ac FAfe | 
d2BdF2d2 | cFFd cFfe | dFFd BFdf | c2Ac FAfe | d4z2 ||
M:3/4
[P:C] "freudig" B,2 | E3G Be  | BA B2c_d | d3B  GD | F2z2f2 | cc c=B cd | 
e2f2 dc | BB BA Bc | d2z2BA | G3G Be | BA B2 c_d | d3B GD  | 
F2z2f2 | cc c=B cd | e2f2dc | B4BA | G3G Be | BAB2 c_d | 
d3B GD | F2z2f2 | cc c=B cd | e2f2dc | BB BA Bc | d2z2BA | 
G3G Be | BAB2c_d | d3B GD | F2z2f2 | cc c=B cd | e2f2dc | B4 |] 
W:
%W:Reihenfolge: A - B - A - C
W:notiert Edi Gasser. Angaben Alois Gabriel
W:UJV-Naturjodelsammlung: Code-Nr: 38-01
W:http://www.naturjodler.ch/code 38.htm  (with AUDIO)
%Juni 6, 2018

